X: 3316
T: SCENES THAT ARE BRIGHTEST
%R: waltz
B: James Kerr "Merry Melodies" v.3 p.34 #316
Z: 2016 John Chambers <jc:trillian.mit.edu>
M: 3/4
L: 1/4
K: G
ud |\
d3 | (B2g) | d3 | (B2D) |\
B3 | (A>FA/c/) | e3 | d2d |\
d3 | (B2g) | d3 | (B2D) |\
B3 | (A2D) | G3- | Gz :|

%%sep 1 1 500
%%sep 1 1 500

